X: 40256
T: To Catch A Cat
R: jig
M: 6/8
K: Eminor
|:G2 E GAB|G2 E edB|G2 E deB|egd eBd|
G2E GAB|G2E edB|gae gdB|ABG EGB:|
|:e2d ega|e2d GAE|e2 d BBd|AAB GGE|
e2d ega|e2d GAd|gae gdB|ABG E2E:|
|:EGB EGB|deA BGA|EGB EGB|edA BAB|
EGB EGB|deg dAe|gae gdB|GAG E3:|

